!!!!SEGMENT: pl-wtm--557--001-004_stojowski-zygmunt--romantische-stucke-op-25-4-barcarolle.krn
!!!cenid: 19xx:163
!!!COM: Stojowski, Zygmunt
!!!COM-rismID: pe41019736
!!!CDT: 1870-1946
!!!CNT: Polish
!!!GTL: Romantische Stücke Op. 25
!!!OTL: 4. Barcarolle
!!!OMV: 004
!!!PDT:
!!!AGN: Secular; Barcarolle
!!!YEC: Copyright 2022 Narodowy Instytut Fryderyka Chopina (https://polishscores.org)
!!!YEM: License CC-BY-4.0 (https://creativecommons.org/licenses/by/4.0)
!!!SMS-siglum: PL-Wtm
!!!SMS-shelfmark: 557
!!!SMS-variant:
!!!SMS-altvar:
!!!SMS-shelfwork: 001-004 G
!!!NIFC-rismSourceID: 1001211569
!!!NIFC-rismChildID: 1001211569
!!!NIFC-islandoraID: pl-wtm:75301
!!!URL-pdf-islandora: https://repozytorium.nifc.pl/islandora/object/pl-wtm%3A75301/datastream/PDF/view
!!!URL-scan: https://polish.musicsources.pl/pl/lokalizacje/galeria/druki-muzyczne/19410/9 @EN{Scan on Polish Music Sources Website} @PL{Skany w portalu Dziedzictwo Muzyki Polskiej w otwartym dostępie}
!!!IIIF:
!!!ONB-nifc:
!!!AIN: 1 piano
!!!key: e
**kern	**fing	**kern	**fing	**dynam
*part1	*	*part1	*	*part1
*staff2	*	*staff1	*	*staff1/2
*group1	*	*group1	*	*
*ICklav	*	*ICklav	*	*
*Ipiano	*	*Ipiano	*	*
*I"Pianoforte	*	*I"Pianoforte	*	*
*	*	*I'	*	*
*clefF4	*	*clefG2	*	*
*k[f#]	*	*k[f#]	*	*
*e:	*	*e:	*	*
*M5/4	*	*M5/4	*	*
=1	=1	=1	=1	=1
!!LO:TX:a:B:t=Moderato.
4%5r	.	(8eeL 8g/	2 5	p
.	.	8bJ 8e/)	1 3	<
.	.	(8eeL 8g/	.	.
.	.	8bJ 8e/)	.	.
.	.	(8eeL 8g/	.	[
.	.	8bJ 8e/)	.	.
.	.	(8eeL 8g/	.	>
.	.	8ccJ 8e/)	4	.
.	.	(8eeL 8g/	.	.
.	.	8bJ 8e/)	.	]
=2	=2	=2	=2	=2
4%5r	.	(8eeL 8g/	.	.
.	.	8bJ 8e/)	.	.
.	.	(8eeL 8g/	.	.
.	.	8bJ 8e/)	.	.
.	.	(8eeL 8g/	.	.
.	.	8bJ 8e/)	.	.
.	.	(8eeL 8g/	.	.
.	.	8ccJ 8e/)	.	.
.	.	(8eeL 8g/	.	.
.	.	8bJ 8e/)	.	.
=3	=3	=3	=3	=3
*^	*	*	*	*
!LO:TX:b:i:t=legato e molto cantabile	!	!	!	!	!
(8B/L	2.E\	2	(8eeL 8g/	.	.
8A/J	.	.	8bJ 8e/)	.	.
2B/	.	.	(8eeL 8g/	.	.
.	.	.	8bJ 8e/)	.	.
.	.	.	(8eeL 8g/	.	.
.	.	.	8bJ 8e/)	.	.
4c/	4AA\	.	(8eeL 8g/	.	.
.	.	.	8ccJ 8e/)	.	.
4B/	4r	2	(8eeL 8g/	.	.
.	.	.	8bJ 8e/)	.	.
!!LO:LB:g=original
=4	=4	=4	=4	=4	=4
8A/L	2.D\	1	(8ddL 8f#/	2 5	.
8G/J	.	3	8ccJ 8d/)	1 4	.
2A/	.	2	(8ddL 8f#/	.	.
.	.	.	8ccJ 8d/)	.	.
.	.	.	(8ddL 8f#/	.	.
.	.	.	8ccJ 8d/)	.	.
4B/	2GG\	.	(8ddL 8f#/	.	.
.	.	.	8bJ 8d/)	4	.
4G/	.	.	(8ddL 8f#/	.	.
.	.	.	8bJ 8d/)	.	.
=5	=5	=5	=5	=5	=5
8E/L	[2.AA\	.	(8ccL 8g/	3	.
8D/J	.	.	8aJ 8c/)	.	.
2E/	.	.	(8ccL 8f#/	.	.
.	.	.	8aJ 8c/)	.	.
.	.	.	(8ccL 8e/	.	.
.	.	.	8aJ 8c/)	.	.
4F#/	2AA\]	.	(8bL 8d/	2 5	.
.	.	.	8f#J 8B/)	3	.
4D/)	.	.	(8bL 8d/	.	.
.	.	.	8f#J 8B/)	.	.
=6	=6	=6	=6	=6	=6
1E	&(4GG\	.	(8bL 8e/	2 5	.
.	.	.	8gJ 8B/)	1 4	.
!	!	!	!	!	!LO:HP:b=2
.	4C\	.	(8aL 8e/	.	<
.	.	.	8f#J 8A/)	3	.
.	4BB\	.	(8bL 8e/	.	.
.	.	.	.	.	[
!	!	!	!LO:TX:b:i:t=poco rit.	!	!
.	.	.	8gJ 8B/)	4	.
.	8AA\L	.	(8ccL 8e/	.	.
.	8BB\	.	8gJ 8c/)	3	.
!	!	!	!	!	!LO:HP:b=2
.	.	.	.	.	>
4rF	8GG\	.	(8ddL 8f#/	2 5	.
*	*	*below	*	*	*
.	8FF#\J	4	8bJ 8d/)	4	]]
*v	*v	*	*	*	*
!!LO:LB:g=original
=7	=7	=7	=7	=7
!!LO:TX:a:i:t=a tempo
4.EE/	.	(8eeL 8g/	.	.
.	.	8bJ 8e/)	.	.
!	!	!	!	!LO:HP:b=2
.	.	(8ggL 8b\	2 5	<
8BB\L	.	8eeJ 8g\)	1 4	.
8E\	.	(8ggL 8cc\	.	[
*	*above	*	*	*
8F#\J	3	8eeJ 8g\)	.	.
!	!	!	!	!LO:HP:b=2
8E\L	.	(8ggL 8cc\	.	>
8F#\	.	8eeJ 8g\)	.	.
8G\	.	(8eeL 8g/	.	.
8B\J&)	.	8bJ 8e/)	.	]
=8	=8	=8	=8	=8
*^	*	*^	*	*
!	!	!	!	!	!	!LO:DY:b=2:t=più %s
(8B/L	2.E\	2	(8eeL 8g/	2ryy	.	p
8A/J	.	.	8bJ 8e/)	.	.	.
2B/	.	.	(8eeL 8g/	.	.	.
.	.	.	8bJ 8e/)	.	.	.
!	!	!	!LO:TX:a:i:t=espressivo	!	!	!
.	.	.	4gg~/	(8ggL 8b\	.	.
.	.	.	.	8eeJ 8g\)	.	.
4c/	4AA\	.	(4gg/	(8ggL 8cc\	.	.
.	.	.	.	8eeJ 8g\)	.	.
4B/	4rBB	.	4ccc/)	(8cccL 8ee\	2 5	.
.	.	.	.	8ggJ 8cc\)	3	.
=9	=9	=9	=9	=9	=9	=9
8A/L	2.D\	.	(8ddL 8g/	2ryy	.	.
8G/J	.	.	8ccJ 8d/)	.	.	.
2A/	.	.	(8ddL 8f#/	.	.	.
.	.	.	8ccJ 8d/)	.	.	.
.	.	.	4ff#~/	(8ff#L 8cc\	2 5	.
.	.	.	.	8ddJ 8f#\)	3	.
4B/	2GG\	.	(4ff#/	(8ff#L 8b\	.	.
.	.	.	.	8ddJ 8f#\)	.	.
4G/	.	.	4bb/)	(8bbL 8dd\	.	.
.	.	.	.	8ff#J 8b\)	.	.
!!LO:LB:g=original
=10	=10	=10	=10	=10	=10	=10
*	*	*	*	*	*	*^
8E/L	[2.AA\	.	(8ccL 8e/	2ryy	.	.	.
!	!	!	!LO:TX:b:i:t=cresc.-:ext=ud:problem:text with extention lines	!	!	!	!
8D/J	.	.	8gJ 8c/)	.	.	<	.
2E/	.	.	(8ccL 8e/	.	.	.	.
.	.	.	8gJ 8c/)	.	.	.	.
.	.	.	4ee~/	(8eeL 8g\	.	.	.
.	.	.	.	8ccJ 8e\)	.	.	.
4G/	2AA\]	.	(4ee/	(8eeL 8g\	.	.	.
.	.	.	.	8ccJ 8e\)	.	.	.
4F#/)	.	.	4dd/)	(8ddL 8f#\	.	.	.
.	.	.	.	8ccJ 8d\)	.	.	.
=11	=11	=11	=11	=11	=11	=11	=11
(8F#/L	[2.BB\	.	(8ddL 8f#/	2ryy	.	.	.
8E/J	.	.	8bJ 8d/)	.	.	.	.
2F#/	.	.	(8ddL 8f#/	.	.	.	.
.	.	.	8bJ 8d/)	.	.	.	.
.	.	.	4ff#~/	(8ff#L 8b\	.	.	.
.	.	.	.	8ddJ 8f#\)	.	.	.
4A/	2BB\]	.	(4ff#/	(8ff#L 8b\	.	.	.
.	.	.	.	8ddJ 8f#\)	.	.	.
4G/)	.	.	4gg/)	(8ggL 8b\	.	.	.
.	.	.	.	8ddJ 8g\)	.	.	.
=12	=12	=12	=12	=12	=12	=12	=12
(8G/L	[2.C\	.	(8eeL 8g/	2ryy	.	.	.
8F#/J	.	.	8bJ 8e/)	.	.	.	.
2G/	.	.	(8eeL 8g/	.	.	.	.
.	.	.	8bJ 8e/)	.	.	.	.
.	.	.	4gg~/	(8ggL 8b\	.	.	.
.	.	.	.	8eeJ 8g\)	.	.	.
!	!	!	!	!	!	!	!LO:HP:a
4B/	2C\]	.	(4gg/	(8ggL 8b\	.	.	>
.	.	.	.	8eeJ 8g\)	.	.	.
4A/	.	.	4aa/)	(8aaL 8cc\	.	.	.
.	.	.	.	8eeJ 8a\)	.	[[	.
!!LO:LB:g=original
=13	=13	=13	=13	=13	=13	=13	=13
2B/	[2.D\	1	(8ddL 8g/	2ryy	.	.	.
.	.	.	8bJ 8d/)	.	.	.	]]
.	.	.	(8ddL 8g/	.	.	.	.
.	.	.	8bJ 8d/)	.	.	.	.
*	*	*below	*	*	*	*	*
!!LO:TX:a:i:t=poco rit.
[4c/	.	2	4ee~/	(8eeL 8g\	.	.	.
.	.	.	.	8bJ 8e\)	.	.	.
8c/L]	2D\]	.	(4ee/	(8eeL 8g\	.	.	.
8B/J	.	.	.	8ccJ 8e\)	.	.	.
4A/)	.	.	4ff#/)	(8ff#L 8cc\	2 5	.	.
.	.	.	.	8ddJ 8f#\)	3	.	.
*v	*v	*	*	*	*	*v	*v
=14	=14	=14	=14	=14	=14
!LO:TUP:b	!	!	!	!	!
(12GG/L	.	4gg/	(8ggL 8b\	.	p
*	*above	*	*	*	*
12D/	3	.	.	.	.
!	!	!	!	!	!LO:HP:a:t=poco a poco animato e cresc.
.	.	.	8ddJ 8g\)	.	<
*	*below	*	*	*	*
12G/J	2	.	.	.	.
!LO:TUP:a	!	!	!	!	!
12B\L	.	4dd/	(8ddL 8g\	.	.
12A\	.	.	.	.	.
.	.	.	8bJ 8d\)	.	.
12G\J	.	.	.	.	.
!LO:TUP:b	!	!	!	!	!
12F#/L	.	4gg/	(8ggL 8b\	.	.
*	*above	*	*	*	*
12E/	1	.	.	.	.
.	.	.	8cc#XJ 8g\)	3	.
12AA/J	.	.	.	.	.
!LO:TUP:b	!	!	!	!	!
12DD/L	.	(8ff#/L	8dd\L	2 4	.
12AA/	.	.	.	.	.
.	.	8ee/	8ccn\	1 3	.
12D/J	.	.	.	.	.
*	*below	*	*	*	*
!LO:TUP:a	!	!	!	!	!
12F#\L	4	8ff#/	8b\	2 5	.
12c\	.	.	.	.	.
.	.	8dd/J)	8a\J	1 3	.
12d\J)	.	.	.	.	.
=15	=15	=15	=15	=15	=15
*Xtuplet	*	*	*	*	*
(12GG/L	.	4gg/	(8ggL 8b\	.	.
12D/	.	.	.	.	.
.	.	.	8ddJ 8g\)	.	.
12G/J	.	.	.	.	.
12B\L	.	4dd/	(8ddL 8g\	.	.
12A\	.	.	.	.	.
.	.	.	8bJ 8d\)	.	.
12G\J	.	.	.	.	.
12F#/L	.	4gg/	(8ggL 8b\	.	.
12E/	.	.	.	.	.
.	.	.	8cc#XJ 8g\)	3	.
12AA/J	.	.	.	.	.
12DD/L	.	(8ff#/L	8ee\L	2 3	.
12AA/	.	.	.	.	.
.	.	8gg/	8dd\	1 4	.
12D/J	.	.	.	.	.
12F#\L	.	8aa/	8cc#\	2 5	.
12A\	.	.	.	.	.
.	.	8dd/J)	8ccn\J	1 3	.
12d\J)	.	.	.	.	.
!!LO:PB:g=original
=16	=16	=16	=16	=16	=16
(12GG/L	.	4gg/	(8ggL 8b\	.	.
12D/	.	.	.	.	.
.	.	.	8ddJ 8g\)	.	.
12G/J	.	.	.	.	.
12B\L	.	4dd/	(8ddL 8g\	.	.
12A\	.	.	.	.	.
.	.	.	8bJ 8d\)	.	.
12G\J	.	.	.	.	.
12F#/L	.	4bb/	(8bbL 8gg\	.	.
12E/	.	.	.	.	.
.	.	.	8cc#XJ 8b\)	.	.
12AA/J	.	.	.	.	.
12DD/L	.	(8aa/L	8gg\L	4 5	.
12AA/	.	.	.	.	.
.	.	8ee/	8dd\	1 3	.
12D/J	.	.	.	.	.
12A\L	.	8ff#/	8ccn\	2 5	.
12c\	.	.	.	.	.
.	.	8dd/J)	8f#\J	1 3	.
12d\J)	.	.	.	.	.
=17	=17	=17	=17	=17	=17
(12GG/L	.	4gg/	(8ggL 8b\	.	.
12D/	.	.	.	.	.
.	.	.	8ddJ 8g\)	.	.
12G/J	.	.	.	.	.
12B\L	.	4dd/	(8ddL 8g\	.	.
12A\	.	.	.	.	.
.	.	.	8bJ 8d\)	.	.
12G\J	.	.	.	.	.
12F#/L	.	4bb/	(8bbL 8gg\	.	.
12E/	.	.	.	.	.
.	.	.	8cc#XJ 8b\)	.	.
12AA/J	.	.	.	.	.
12DD/L	.	(8aa/L	8gg\L	1 3	.
12AA/	.	.	.	.	.
.	.	8bb/	8ff#\	2 4	.
12D/J	.	.	.	.	.
12F#\L	.	8cccn/	8ee\	1 5	.
12A\	.	.	.	.	.
.	.	8ccn/J)	8dd\J	2 3	.
12d\J)	.	.	.	.	.
!!LO:LB:g=original
=18	=18	=18	=18	=18	=18
*	*above	*Xtuplet	*Xtuplet	*below	*
!	!	!LO:TX:a:i:t=sempre legato	!	!	!LO:DY:t=%s con fuoco
4D 4GG/	2	4ddd/	12bb\L	3	f
.	.	.	12aa\	.	.
.	.	.	12gg\J	.	.
4d\	.	4bb/	12ff#\L	3	.
.	.	.	12ee\	.	.
.	.	.	12dd\J	.	.
4D 4GG/	.	4ddd/	12bb\L	.	.
.	.	.	12aa\	.	.
.	.	.	12gg\J	.	.
4d\	.	4aa/	12ff#\L	.	.
.	.	.	12ee\	.	.
.	.	.	12dd\J	.	.
4D 4GG/	.	4ccc/	12ee\L	.	.
.	.	.	12ff#\	.	.
.	.	.	12dd\J	.	.
=19	=19	=19	=19	=19	=19
*	*	*	*	*^	*
4d\	.	4bb/	12gg\L	.	.	.
.	.	.	12ff#\	.	.	.
.	.	.	12ee\J	.	.	.
4D 4GG/	.	4gg/	12ff#\L	3 4	.	.
.	.	.	12ee\	.	.	.
.	.	.	12dd\J	.	.	.
4d\	.	4bb/	12ee\L	.	.	.
.	.	.	12dd\	.	.	.
.	.	.	12cc#X\J	.	2	.
4D 4GG/	.	4ee/	12dd\L	4	3	.
.	.	.	12ccn\	.	.	.
.	.	.	12b\J	.	.	.
4d\	.	4ff#/	12cc\L	3 5	.	.
.	.	.	12b\	.	.	.
.	.	.	12a\J	.	.	.
*	*	*	*	*v	*v	*
=20	=20	=20	=20	=20	=20
*	*	*	*	*above	*
4D 4GG/	.	4gg/	12ee\L	3 5	.
.	.	.	12dd\	.	.
.	.	.	12cc\J	.	.
!	!	!LO:TX:b:i:t=poco a poco-dim.-e-calmato-:ext=ud:problem:text with extention lines	!	!	!
4d\	.	4ee/	12dd\L	3 4	>
.	.	.	12cc\	.	.
.	.	.	12b\J	.	.
*	*	*	*	*below	*
4D 4GG/	.	4gg/	12cc\L	3	.
.	.	.	12b\	.	.
.	.	.	12a\J	.	.
4d\	.	4dd/	12b\L	3	.
.	.	.	12a\	.	.
.	.	.	12g\J	.	.
4D 4GG/	.	4ffn/	12a\L	.	.
.	.	.	12b\	.	.
.	.	.	12g\J	.	.
!!LO:LB:g=original
=21	=21	=21	=21	=21	=21
*	*	*	*	*above	*
4d\	.	4ee/	12cc\L	3 5	.
.	.	.	12b\	.	.
.	.	.	12a\J	.	.
4D 4GG/	.	4cc/	12b\L	3 4	.
.	.	.	12a\	.	.
.	.	.	12g\J	.	.
4d\	.	4ee/	12a\L	.	.
.	.	.	12g\	.	.
*	*	*	*	*below	*
.	.	.	12f#\J	2	.
*	*	*	*	*above	*
4D 4GG/	.	[4a/	12g\L	3 4	.
.	.	.	12f#\	.	.
.	.	.	12e\J	.	.
4d\	.	12a/L]	12f#\L	.	.
.	.	12b/	12g\	1 3	.
.	.	12cc/J	12a\J	.	.
=22	=22	=22	=22	=22	=22
*^	*	*	*	*	*
4rc	4D 4GG\	.	4dd/	12b\L	.	.
.	.	.	.	12a\	.	.
.	.	.	.	12g\J	.	.
2B~/	4rBB	.	4b/	12f#\L	.	.
.	.	.	.	12e\	.	.
.	.	.	.	12d\J	.	.
.	4D 4GG\	.	4dd/	12b\L	.	.
.	.	.	.	12a\	.	.
.	.	.	.	12g\J	.	.
2A~/	4rBB	.	4a/	12f#\L	.	.
.	.	.	.	12e\	.	.
.	.	.	.	12d\J	.	.
.	4D 4GG\	.	4cc/	12e\L	.	.
.	.	.	.	12f#\	.	.
.	.	.	.	12d\J	.	]]
!!LO:LB:g=original
=23	=23	=23	=23	=23	=23	=23
2G~/	4r	.	4b/	12g\L	.	.
.	.	.	.	12f#\	.	.
.	.	.	.	12e\J	.	.
.	4D 4GG\	.	4g/	12f#\L	.	.
.	.	.	.	12e\	.	.
.	.	.	.	12d\J	.	.
2G~/	4r	.	4b/	12e\L	.	.
.	.	.	.	12d\	.	.
.	.	.	.	12c#X\J	.	.
.	4D 4GG\	.	4e/	12d\L	.	.
.	.	.	.	12cn\	.	.
.	.	.	.	12B\J	.	.
[4G/	4r	.	4f#/	12c\L	.	.
.	.	.	.	12B\	.	.
.	.	.	.	12A\J	.	.
=24	=24	=24	=24	=24	=24	=24
4G/]	4D 4GG\	.	4g/	12e\L	.	.
.	.	.	.	12d\	.	.
.	.	.	.	12c\J	.	.
2F#~/	4r	.	4e/	12d\L	.	.
.	.	.	.	12c\	.	.
.	.	.	.	12B\J	.	.
.	4D 4GG\	.	4g/	12c\L	.	.
.	.	.	.	12B\	.	.
.	.	.	.	12A\J	.	.
2Fn~/	4r	.	4d/	12B\L	.	.
.	.	.	.	12A\	.	.
.	.	.	.	12G\J	.	.
.	4D 4GG\	.	4fn/	12A\L	.	.
.	.	.	.	12B\	.	.
.	.	.	.	12G\J	.	.
*v	*v	*	*	*	*	*
=25	=25	=25	=25	=25	=25
4E~\	.	4e/	12c\L	.	.
.	.	.	12B\	.	.
.	.	.	12A\J	.	.
4D 4GG/	.	4c/	12B\L	.	.
.	.	.	12A\	.	.
.	.	.	12G\J	.	.
4E~\	.	4e/	12A\L	.	.
.	.	.	12G\	.	.
.	.	.	12F#\J	.	.
4D 4GG/	.	[4A/	12G\L	.	.
.	.	.	12F#\	.	.
.	.	.	12E\J	.	.
4E-X~\	.	12A/L]	12F#\L	.	.
.	.	12B/	12G\	.	.
.	.	12c/J	12A\J	.	.
*	*	*v	*v	*	*
!!LO:LB:g=original
=26	=26	=26	=26	=26
*	*below	*	*	*
(>8DL 8GG/	1 5	12dL 12B/	3 5	p
.	.	12A/	.	.
8E-XJ 8C/	2 3	.	.	.
.	.	12G/J	.	.
!	!	!LO:TX:a:i:t=veloce	!	!
2D 2GG/)	.	12F#/L	2	.
.	.	12G/	1	.
.	.	12A/J	.	.
.	.	12B/L	.	<
.	.	12c/	1	.
.	.	12d/J	.	.
2r	.	12e/L	.	.
.	.	12f#/	.	.
.	.	12g/J	1	.
.	.	12a/L	.	.
.	.	12b/	.	.
.	.	12cc/J	.	[
=27	=27	=27	=27	=27
(8dL 8G\	.	12ddL 12b/	.	.
.	.	12a/	.	.
8e-XJ 8c\	.	.	.	.
.	.	12g/J	.	.
2d 2G\)	.	12f#/L	.	.
.	.	12g/	.	.
.	.	12a/J	.	.
.	.	12b\L	.	.
.	.	12cc\	.	.
.	.	12dd\J	.	.
2r	.	12ee\L	.	.
.	.	12ff#\	.	.
.	.	12gg\J	.	.
.	.	12aa\L	.	.
.	.	12bb\	.	.
.	.	12ccc\J	.	.
*clefG2	*	*	*	*
=28	=28	=28	=28	=28
*	*	*8va	*	*
(8ddL 8g\	.	12ddd 12bbL/	.	.
.	.	12aa/	.	.
8ee-XJ 8cc\	.	.	.	.
.	.	12gg/J	.	.
2dd 2g\)	.	12ff#/L	.	.
.	.	12gg/	.	.
.	.	12aa/J	.	.
.	.	12bb\L	.	.
.	.	12ccc\	.	.
.	.	12ddd\J	.	.
2r	.	12eee\L	.	.
.	.	12fff#\	.	.
.	.	12ggg\J	.	.
.	.	12aaa\L	.	.
.	.	12bbb\	.	.
.	.	12cccc\J	.	.
!!LO:PB:g=original
=29	=29	=29	=29	=29
4ddd 4gg\	.	12ddddL 12bbb\	3 5	.
.	.	12aaa\	.	.
.	.	12ggg\J	.	.
4eee-X 4ccc\	.	12fff#\L	2	.
.	.	12ggg\	1	.
.	.	12aaa\J	.	.
4ddd 4gg\	.	12ddddL 12bbb\	.	.
.	.	12aaa\	.	.
.	.	12ggg\J	.	.
4eee- 4ccc\	.	12fff#\L	.	.
.	.	12ggg\	.	.
.	.	12aaa\J	.	.
4ddd 4gg\	.	12ddddL 12bbb\	.	.
.	.	12aaa\	.	.
.	.	12ggg\J	.	.
=30	=30	=30	=30	=30
4eee-X 4ccc\	.	12fff#\L	.	.
.	.	12ggg\	.	.
.	.	12aaa\J	.	.
4ddd 4gg\	.	12ddddL 12bbb\	.	>
.	.	12aaa\	.	.
.	.	12ggg\J	.	.
4eee- 4ccc\	.	12fff#\L	.	.
.	.	12ggg\	.	.
.	.	12aaa\J	.	.
4ddd 4gg\	.	12ddddL 12bbb\	.	.
.	.	12aaa\	.	.
.	.	12ggg\J	.	.
4eee- 4ccc\	.	12fff#\L	.	.
.	.	12ggg\	.	]
.	.	12aaa\J	.	.
!!LO:LB:g=original
=31	=31	=31	=31	=31
!LO:TX:t=P:problem:kreska łącząca 8ddd 8gg\ i 12ffn>\L	!	!	!	!
8ddd 8gg\	.	12ddddL 12bbb/	.	.
.	.	12aaa/	.	.
8ryy	.	.	.	.
.	.	12ggg/J	.	.
*8va	*	*	*	*
!	!	!LO:TX:b:i:t=m.s.	!	!
12fffn>\L	.	4ryy	.	.
12eeen>\	.	.	.	.
12ddd>\J	.	.	.	.
*X8va	*	*	*	*
4ryy	.	12gggL 12eee-X/	3 5	.
.	.	12ddd/	.	.
.	.	12ccc#X/J	.	.
*8va	*	*	*	*
12cccn>\L	.	4ryy	.	.
12bb>\	.	.	.	.
12aa>\J	.	.	.	.
*X8va	*	*	*	*
4ryy	.	12dddL 12bb/	.	.
.	.	12aa/	.	.
.	.	12gg/J	.	.
*	*	*X8va	*	*
=32	=32	=32	=32	=32
12ffn>\L	.	4ryy	.	<
12een>\	.	.	.	.
12dd>\J	.	.	.	.
4ryy	.	12ggL 12ee-X/	.	.
.	.	12dd/	.	.
.	.	12cc#X/J	.	.
12ccn>\L	.	4ryy	.	.
12b>\	.	.	.	.
12a>\J	.	.	.	.
4ryy	.	12ddL 12b/	.	.
.	.	12a/	.	.
.	.	12g/J	.	[
12fn>\L	.	4ryy	.	.
12en>\	.	.	.	.
12d>\J	.	.	.	.
!!LO:LB:g=original
=33	=33	=33	=33	=33
4ryy	.	12gL 12e-X/	.	.
.	.	12d/	.	.
.	.	12c#X/J	.	.
*clefF4	*	*	*	*
12cn\L	.	4ryy	.	.
12B\	.	.	.	.
12A\J	.	.	.	.
4ryy	.	12d<L 12B</	.	.
.	.	12A</	.	.
.	.	12G</J	.	.
12Fn\L	.	4ryy	.	.
12En\	.	.	.	.
12D\J	.	.	.	.
!	!	!LO:SIC:v:s=12G<L 12E-</	!	!
4ryy	.	12G<L 12E</	.	.
.	.	12D</	.	.
.	.	12C#X</J	.	.
=34	=34	=34	=34	=34
*ped	*	*	*	*
!!LO:TX:a:i:t=largamente
!LO:TX:t=P:problem:klamra z 2	!	!	!	!
8BBB\L	.	4.ryy	.	f <
8FF#\	.	.	.	.
!LO:TX:t=P:problem:klamra z 2	!	!	!	!
8BB\J	.	.	.	.
4.ryy	.	8D#X</L	1	.
!	!	!LO:TX:t=P:problem:klamra z 2	!	!
.	.	8B< 8F#</	.	.
.	.	8d#X</J	.	.
!LO:TX:t=P:problem:klamra z 2	!	!	!	!
[[<8f#>\L	5	4ryy	.	.
[[<8dd#X> [8b>\	.	.	.	.
!LO:TX:t=P:problem:klamra z 2	!	!	!	!
[[<8ff#>\J	.	8ryy	.	[
8ryy	.	[>8bb/	1	.
=35	=35	=35	=35	=35
[2.ff#>]] 2.dd#>_ 2.b>_ 2.f#>\_	.	[2.bbb [2.ddd#X 2.bb/_	.	.
2ff#>]] 2dd#>] 2b>] 2f#>\]	.	2bbb] 2ddd#] 2bb/]	.	.
*Xped	*	*	*	*
!!LO:LB:g=original
=36	=36	=36;	=36	=36
4ryy	.	12aaaL 12fffn/	.	p
.	.	12eee/	.	.
.	.	12ddd/J	.	.
12cccn>\L	.	4ryy	.	.
12bb-X>\	.	.	.	.
12aa>\J	.	.	.	.
4ryy	.	12dddL 12bb/	.	.
.	.	12aa/	.	.
.	.	12gg#X/J	.	.
12ggn>\L	.	4ryy	.	.
12ffn>\	.	.	.	.
12ee>\J	.	.	.	.
4ryy	.	12aaL 12ff#/	.	.
.	.	12ee/	.	.
.	.	12dd/J	.	.
=37	=37	=37	=37	=37
12ccn>\L	.	4ryy	.	.
12b-X>\	.	.	.	.
12a>\J	.	.	.	.
4ryy	.	12ddL 12b/	.	.
.	.	12a/	.	.
.	.	12g#X/J	.	.
12gn>\L	.	4ryy	.	<
12fn>\	.	.	.	.
12e>\J	.	.	.	.
4ryy	.	12aL 12f#/	.	.
.	.	12e/	.	.
.	.	12d/J	.	.
12cn\L	.	4ryy	.	.
12B-X\	.	.	.	.
12A\J	.	.	.	.
!!LO:LB:g=original
=38	=38	=38	=38	=38
4ryy	.	12d<L 12B-X</	.	.
.	.	12A</	.	.
.	.	12G#</J	.	.
12Gn\L	.	4ryy	.	[
12Fn\	.	.	.	.
12E\J	.	.	.	.
4ryy	.	12A<L 12Fn</	.	.
.	.	12E</	.	.
.	.	12D</J	.	.
12Cn\L	.	4ryy	.	.
12BB-X\	.	.	.	.
12AA\J	.	.	.	.
4ryy	.	12D<L 12BB</	.	.
.	.	12AA</	.	.
.	.	12GG#X</J	.	.
=39	=39	=39	=39	=39
*ped	*	*	*	*
!LO:TX:t=P:problem:klamra z 2	!	!	!	!
8AAA^<\L	.	4.ryy	.	f <
8EE\	.	.	.	.
8AA\J	.	.	.	.
4.ryy	.	8C#X</L	1	.
.	.	8A< 8E</	.	.
.	.	8c#X</J	.	.
[[<8e>\L	5	4ryy	.	[
[[<8cc#X> [8a>\	.	.	.	.
[[<8ee>\J	.	8ryy	.	.
8ryy	.	[>8aa/	1	.
=40	=40	=40	=40	=40
[2.ee>]] 2.cc#>_ 2.a>_ 2.e>\_	.	[2.aaa [2.ccc#X 2.aa/_	.	.
4ee>] 4cc#>] 4a>] 4e>\]	.	4aaa] 4ccc#] 4aa/]	.	.
*Xped	*	*	*	*
4ryy	.	4r	.	.
!!LO:PB:g=original
=41	=41	=41	=41	=41
!!LO:TX:a:i:t=allargando
!LO:TX:a:i:t=pesante	!	!	!	!
!LO:TX:t=P:problem:klamra z 2	!	!	!	!
8CCn\L	.	2.ryy	.	.
8GG\	.	.	.	.
8E\J	.	.	.	.
*	*above	*	*	*
8G/L	1	.	.	.
8e> 8cn>/	.	.	.	.
8g>/J	.	.	.	.
*	*below	*	*	*
8een>L 8cc>\	2 4	4ryy	.	.
8gg>\J	.	.	.	.
4ryy	.	8eeeL 8cccn/	.	.
.	.	8ggg/J	.	.
*clefG2	*	*	*	*
=42	=42	=42	=42	=42
*	*	*^	*	*
*	*	*	*8va	*	*
!!LO:TX:a:i:t=a tempo
(8eeL 8g/	1 4	2.eee/	(>8bbbL 8bb\	.	f
8bJ 8e/)	2 5	.	8aaaJ 8aa\	4	.
(8eeL 8g/	.	.	2bbb 2bb\)	.	.
8bJ 8e/)	.	.	.	.	.
(8eeL 8g/	.	.	.	.	.
8bJ 8e/)	.	.	.	.	.
(8eeL 8a/	3	2ryy	(4cccc 4eee 4ccc\	.	.
8ccJ 8e/)	.	.	.	.	.
(8eeL 8g/	.	.	4bbb 4bb\)	.	.
8bJ 8e/)	.	.	.	.	.
*	*	*v	*v	*	*
=43	=43	=43	=43	=43
(8eeL 8g/	.	(8aaaL 8aa\	.	.
8ccJ 8e/)	.	8gggJ 8gg\	4	.
(8eeL 8f#/	4	2aaa 2aa\)	.	.
8ccJ 8e/)	.	.	.	.
(8dd#XL 8f#/	4	.	.	.
8ccJ 8d#X/)	.	.	.	.
(8ddnL 8fn/	4	(4bbb 4bb\	.	.
8bJ 8dn/)	.	.	.	.
(8ddL 8f/	.	4ggg 4gg\)	.	.
8bJ 8d/)	.	.	.	.
!!LO:LB:g=original
=44	=44	=44	=44	=44
(8ccL 8g/	1 3	(8eeeL 8ee/	.	.
8bJ 8c/)	2 5	8dddJ 8dd/	4	.
(8ccL 8g/	.	2eee 2ee/)	.	.
*	*above	*	*	*
8aJ 8c/)	2	.	.	.
*	*below	*	*	*
(8ccL 8f#/	3	.	.	.
8aJ 8c/)	.	.	.	.
(8ccL 8e/	.	(4fff# 4ff#\	.	.
8aJ 8c/)	.	.	.	.
(8bL 8f#/	3	4ddd 4dd/)	.	.
8aJ 8B/)	2 5	.	.	.
*	*	*X8va	*	*
=45	=45	=45	=45	=45
*^	*	*^	*	*
(8ccL 8e/	2ryy	3	(4eee 4ee\	2.ryy	.	.
*	*	*above	*	*	*	*
8gJ 8B/)	.	2	.	.	.	.
*	*	*below	*	*	*	*
(8aL 8e/	.	3	4ccc 4cc\)	.	.	.
*	*	*above	*	*	*	*
8f#J 8A/)	.	2	.	.	.	.
*	*	*below	*	*	*	*
4g/	(8e\L	3	(4bb 4b\	.	.	>
.	8d\	.	.	.	.	.
!!LO:TX:a:i:t=poco rit.
4e/	8c#X\	2 3	4ee/	(8a\L	.	.
.	8cn\J)	4	.	8b\	.	.
*clefF4	*	*	*	*	*	*
([4B\	4ryy	1	4dd#X/)	8g\	.	.
.	.	.	.	8f#\J)	.	]
=46	=46	=46	=46	=46	=46	=46
!!LO:TX:a:i:t=a tempo
!	!	!	!	!	!	!LO:DY:t=%s cantabile
8B/L]	2.E\	.	(8eeL 8g/	4ryy	2 5	p
*	*	*above	*	*	*	*
8A/J	.	3	8bJ 8e/)	.	1 3	.
2B/	.	2	(4gg/	8ggL 8b\	2 5	.
.	.	.	.	8eeJ 8g\	.	.
.	.	.	4gg#X/	8gg#L 8b\	.	.
.	.	.	.	8eeJ 8g#X\	.	.
4c/	4AA\	.	4aa/	8aaL 8cc\	.	.
.	.	.	.	8eeJ 8a\	3	.
4B/)	4rGG	2	4ccc/)	8cccL 8ee\	.	.
.	.	.	.	8ggnJ 8cc\	.	.
!!LO:LB:g=original
=47	=47	=47	=47	=47	=47	=47
(8A/L	2.D\	1	(8ddL 8g/	4ryy	2 5	.
8G/J	.	3	8ccJ 8d/)	.	4	.
2A/	.	2	(4ee#X/	8ee#L 8cc\	2 5	.
.	.	.	.	8ddJ 8e#X\	3	.
.	.	.	4ff#/	8ff#L 8cc\	.	.
.	.	.	.	8ddJ 8f#\	.	.
4B/	4GG\	.	4gg/	8ggL 8b\	.	.
.	.	.	.	8ddJ 8g\	3	.
4G/)	4rGG	2	4bb/)	8bbL 8dd\	.	.
.	.	.	.	8ggJ 8b\	4	.
=48	=48	=48	=48	=48	=48	=48
(8E/L	[2.AA\	1	(8ccL 8e/	4ryy	.	.
8D/J	.	3	8gJ 8c/)	.	.	.
!	!	!	!	!LO:TX:a:i:t=pcoo cresc.-:ext=ud:problem:text with extention lines	!	!LO:HP:a
2E/	.	2	(4cc/	8ccL 8e\	.	<
.	.	.	.	8gJ 8c\	.	.
.	.	.	4cc#X/)	8cc#L 8e\	.	.
.	.	.	.	8aJ 8c#X\	.	.
4G/	2AA\]	.	(4cc#/	8cc#L 8e\	.	.
.	.	.	.	8aJ 8c#\	.	.
4F#/)	.	.	4dd/)	8ddL 8f#\	.	.
.	.	.	.	8ccnJ 8d\	.	.
=49	=49	=49	=49	=49	=49	=49
(8F#/L	[2.BB\	.	(8ddL 8f#/	4ryy	.	.
8E/J	.	.	8bJ 8d/)	.	.	.
2F#/	.	.	(4dd/	8ddL 8f#\	.	.
.	.	.	.	8bJ 8d\	.	.
.	.	.	4dd#X/)	8dd#L 8f#\	.	[
.	.	.	.	8bJ 8d#X\	.	.
4A/	2BB\]	.	(4dd#/	8dd#L 8f#\	.	.
.	.	.	.	8bJ 8d#\	.	.
4G/)	.	.	4ee/)	8eeL 8g\	.	.
.	.	.	.	8bJ 8e\	.	.
!!LO:LB:g=original
=50	=50	=50	=50	=50	=50	=50
(8G/L	[2.C\	.	(8eeL 8g/	2ryy	.	.
8F#/J	.	.	8bJ 8e/)	.	.	.
2G/	.	.	(8eeL 8g/	.	.	.
.	.	.	8bJ 8e/)	.	.	.
.	.	.	(4gg/	8ggL 8b\	.	.
.	.	.	.	8eeJ 8g\	.	.
4B/	2C\]	.	4gg#X/	8gg#L 8b\	.	>
.	.	.	.	8eeJ 8g#X\	.	.
4A/)	.	.	4aa/)	8aaL 8cc\	.	.
.	.	.	.	8eeJ 8a\	.	]]
*	*	*	*v	*v	*	*
=51	=51	=51	=51	=51	=51
!LO:TX:t=P:problem:łuczek nad oznaczeniem palcowania	!	!	!	!	!
(2B/	[2.D\	12	8ddL 8g/	.	.
.	.	.	8bJ 8d/	.	.
.	.	.	8ddL 8g/	.	.
.	.	.	8bJ 8d/	.	.
!	!	!	!	!	!LO:HP:a:t=poco a poco cresc. ed incalzando
[4c/	.	.	8eeL 8g/	.	<
.	.	.	8bJ 8e/	.	.
8c/L]	2D\_	.	8eeL 8g/	.	.
8B/J	.	.	8ccJ 8e/	.	.
4A/)	.	.	8ff#L 8cc/	.	.
.	.	.	8ddJ 8f#/	.	.
=52	=52	=52	=52	=52	=52
*	*	*^	*	*	*
(2d/	4D\]	.	.	8ff#L 8b\	.	.
.	.	.	.	8ddJ 8f#\	.	.
.	2D\	.	.	8ff#L 8b\	.	.
.	.	.	.	8ddJ 8f#\	.	.
[4e/	.	.	.	8ggL 8b\	.	.
.	.	.	.	8eeJ 8g\	.	.
8e/L]	4C#X\	.	.	8ggL 8b\	.	.
8d/J	.	.	.	8eeJ 8g\	.	.
4c#X/)	[4F#\	2	5	8ff#L 8a#X\	.	.
.	.	.	.	8eeJ 8f#\	.	.
*	*	*v	*v	*	*	*
=53	=53	=53	=53	=53	=53
2f# 2F#~/]	4rFF	.	8bbL 8dd\	.	.
.	.	.	8ff#J 8b\	.	.
.	4BB 4BBB^\	.	8bbL 8dd\	.	.
.	.	.	8ff#J 8b\	.	.
[4g [4G~/	4rFF	.	8cccnL 8ee\	.	.
.	.	.	8ggJ 8cc\	.	.
8g]L 8G/]	4rFF	.	8cccL 8ee\	.	.
8f#J 8F#~/	.	.	8ggJ 8cc\	.	.
4e 4E~/	4rFF	.	8ccc#XL 8ee\	.	.
.	.	.	8aaJ 8cc#X\	.	.
!!LO:LB:g=original
=54	=54	=54	=54	=54	=54
2a 2A~/	4rGG	.	8dddL 8ff#\	.	.
.	.	.	8aaJ 8dd\	.	.
.	4BB 4BBB^\	.	8dddL 8ff#\	.	.
.	.	.	8aaJ 8dd\	.	.
[4b [4B~/	4rGG	.	8ddd#XL 8ff#\	.	.
.	.	.	8bbJ 8dd#X\	.	.
8b]L 8B/]	4rGG	.	8ddd#L 8ff#\	.	.
8aJ 8A~/	.	.	8bbJ 8dd#\	.	.
4g 4G~/	4rGG	.	8eeeL 8gg\	.	.
.	.	.	8bbJ 8ee\	.	.
=55	=55	=55	=55	=55	=55
!	!	!	!	!	!LO:DY:rj
4.cc 4.c~/	4rGG	.	8eeeL 8gg\	.	f
.	.	.	8cccJ 8ee\	.	.
.	4BB 4BBB^\	.	8fffnL 8aa\	.	.
8b 8B~/	.	.	8cccJ 8ffn\	.	.
4.a 4.A~/	4rGG	.	8fff#XL 8aa\	.	.
.	.	.	8cccJ 8ff#X\	.	.
.	4rGG	.	8gggL 8ccc\	.	.
8g 8G~/	.	.	8eeeJ 8gg\	.	.
[4f# [<4F#~/	4rGG	.	8aaaL 8ccc\	.	.
.	.	.	8eeeJ 8aa\	.	.
=56	=56	=56	=56	=56	=56
*	*	*	*8va	*	*
8f#]L 8F#\]	2.ryy	.	8aaa#XL 8ccc#X\	.	.
8eJ 8E~\	.	.	8fff#J 8aa#X\	.	.
4.d 4.D~\	.	.	8bbbL 8ddd\	.	.
.	.	.	8fff#J 8bb\	.	.
.	.	.	8ccccnL 8eee\	.	.
!	!	!	!LO:TX:b:i:t=poco rit.	!	!
8c 8C~\	.	.	8gggJ 8cccn\	.	.
(4B/	2BB\	.	8ddddL 8fff#\	.	.
.	.	.	8bbbJ 8ddd\	.	.
4A/)	.	.	8dddd#XL 8fff#\	.	.
.	.	.	8bbbJ 8ddd#X\	.	.
*v	*v	*	*	*	*
!!LO:PB:g=original
=57	=57	=57	=57	=57
!	!	!LO:TX:b:i:t=a tempo con fuoco	!	!
(12EE/L	.	(8eeeeL 8ggg\	.	.
12BB/	.	.	.	.
.	.	8bbbJ 8eee\)	.	.
*	*below	*	*	*
12E/J	1	.	.	.
12G\L	.	(8eeeL 8gg/	.	.
12F#\	.	.	.	.
.	.	8bbJ 8ee/)	.	.
12E\J	1	.	.	.
*	*	*X8va	*	*
12D/L	2	(8eeL 8g/	.	.
12C#X/	3	.	.	.
.	.	8a#XJ 8e/)	.	.
12FF#/J	5	.	.	.
12BBB/L	.	(8dd#XL 8b/	3 5	.
12FF#/	.	.	.	.
.	.	8cc#X 8a#/	2 4	.
12BB/J	.	.	.	.
12D#X\L	4	8dd# 8g/	1 5	.
12An\	.	.	.	.
.	.	8bJ 8f#/)	2 4	.
12B\J)	.	.	.	.
=58	=58	=58	=58	=58
(12EE/L	.	(8eeL 8g/	.	.
12BB/	.	.	.	.
.	.	8bJ 8e/)	.	.
12E/J	.	.	.	.
12G\L	.	(8bL 8e/	.	.
12F#\	.	.	.	.
.	.	8gJ 8B/)	.	.
12E\J	.	.	.	.
12D/L	.	(8eeL 8g/	.	.
12C#X/	.	.	.	.
.	.	8a#XJ 8e/)	.	.
12FF#/J	.	.	.	.
12BBB/L	.	(8dd#XL 8ccn\	2 3	.
12FF#/	.	.	.	.
.	.	8ee 8b\	1 4	.
12BB/J	.	.	.	.
12D#X\L	.	8ff# 8a#X\	2 5	.
12F#\	.	.	.	.
.	.	8bJ 8an\)	1 3	.
12B\J)	.	.	.	.
!!LO:LB:g=original
=59	=59	=59	=59	=59
(12EE/L	.	(8eeL 8g/	.	.
12BB/	.	.	.	.
.	.	8bJ 8e/)	.	.
12E/J	.	.	.	.
12G\L	.	(8bL 8e/	.	.
12F#\	.	.	.	.
.	.	8gJ 8B/)	.	.
12E\J	.	.	.	.
12D/L	.	(8ggL 8ee\	.	.
12C#X/	.	.	.	.
.	.	8a#XJ 8g\)	.	.
12FF#/J	.	.	.	.
12BBB/L	.	(8ff#L 8ee/	3 4	.
12FF#/	.	.	.	.
.	.	8cc#X 8b/	1 2	.
12BB/J	.	.	.	.
12F#\L	3	8dd#X 8an/	2 5	.
12A\	.	.	.	.
.	.	8bJ 8d#X/)	3	.
12B\J)	.	.	.	.
=60	=60	=60	=60	=60
*	*	*^	*	*
(12EE/L	.	(8eeL 8g/	2.ryy	.	.
12BB/	.	.	.	.	.
.	.	8bJ 8e/)	.	.	.
12E/J	.	.	.	.	.
12G\L	.	(8bL 8e/	.	.	.
12F#\	.	.	.	.	.
.	.	8gJ 8B/)	.	.	.
12E\J	.	.	.	.	.
12D/L	.	(8ggL 8ee\	.	.	.
12C#X/	.	.	.	.	.
.	.	8a#XJ 8g\)	.	.	.
12FF#/J	.	.	.	.	.
12BBB/L	.	(8ff#/L	8ee\L	1 3	.
12FF#/	.	.	.	.	.
.	.	8gg/	8dd#X\	2 4	.
12BB/J	.	.	.	.	.
12D#X\L	.	8aan/	8cc\	1 5	.
12F#\	.	.	.	.	.
.	.	8an/J)	8b\J	2 3	.
12B\J)	.	.	.	.	.
!!LO:LB:g=original
=61	=61	=61	=61	=61	=61
*	*above	*	*	*below	*
!	!	!LO:TX:a:i:t=sempre legato	!	!	!
4BB 4EE/	2	4bb/	12gg\L	3	.
.	.	.	12ff#\	.	.
.	.	.	12ee\J	.	.
4B\	.	4gg/	12ddn\L	3	.
.	.	.	12cc\	.	.
.	.	.	12b\J	.	.
4BB 4EE/	.	4bb/	12gg\L	3	.
.	.	.	12ff#\	.	.
.	.	.	12ee\J	.	.
4B\	.	4ff#/	12dd#X\L	3	.
.	.	.	12cc#X\	.	.
.	.	.	12b\J	.	.
4BB 4EE/	.	4aa/	12cc#\L	2	.
.	.	.	12dd#\	.	.
.	.	.	12b\J	.	.
=62	=62	=62	=62	=62	=62
*	*	*	*	*^	*
4B\	.	4gg/	12ee\L	.	.	.
.	.	.	12ddn\	.	.	.
.	.	.	12ccn\J	.	.	.
4BB 4EE/	.	4ee/	12dd\L	4	3	.
.	.	.	12cc\	.	.	.
.	.	.	12b\J	.	.	.
4B\	.	4gg/	12cc\L	.	.	.
.	.	.	12b\	.	.	.
.	.	.	12a#X\J	.	2	.
4BB 4EE/	.	4cc/	12b\L	3 4	.	.
.	.	.	12an\	.	.	.
.	.	.	12g\J	.	.	.
4B\	.	4dd/	12a\L	.	.	.
.	.	.	12g\	.	.	.
.	.	.	12f#\J	.	2	.
*	*	*	*	*v	*v	*
!!LO:LB:g=original
=63	=63	=63	=63	=63	=63
*	*	*	*	*above	*
4BB 4EE/	.	4ee/	12cc\L	3 5	.
.	.	.	12b\	.	.
.	.	.	12a\J	.	.
4B\	.	4cc/	12b\L	3 4	.
.	.	.	12a\	.	.
.	.	.	12g\J	.	.
4BB 4EE/	.	4ee/	12a\L	.	.
.	.	.	12g\	.	.
*	*	*	*	*below	*
.	.	.	12f#\J	2	.
4B\	.	4b/	12g\L	.	.
.	.	.	12f#\	.	.
.	.	.	12e\J	.	.
4BB 4EE/	.	4dd/	12f#\L	2	.
.	.	.	12g\	1	.
.	.	.	12g#X\J	2	.
=64	=64	=64	=64	=64	=64
*	*	*	*	*above	*
4B\	.	4cc/	12a\L	3 5	.
.	.	.	12gn\	1	.
.	.	.	12f#\J	2	.
4BB 4EE/	.	4a/	12g\L	3 4	.
.	.	.	12f#\	.	.
.	.	.	12e\J	.	.
4B\	.	4cc/	12f#\L	.	.
.	.	.	12e\	.	.
*	*	*	*	*below	*
.	.	.	12d#X\J	2	.
*	*	*	*	*above	*
4BB 4EE/	.	[4f#/	12e\L	3 4	.
.	.	.	12d#\	.	.
.	.	.	12c#X\J	.	.
4B\	.	12f#/L]	12d#\L	.	.
.	.	12g/	12e\	1 3	.
.	.	12a/J	12f#\J	.	.
!!LO:LB:g=original
=65	=65	=65	=65	=65	=65
*^	*	*	*	*	*
!	!	!	!LO:TX:a:i:t=dim. poco a poco:ext=s:problem:text with extention lines	!	!	!LO:HP:a
4rA	4BB 4EE\	.	4b/	12g\L	.	>
.	.	.	.	12f#\	.	.
.	.	.	.	12e\J	.	.
2G~/	4ryy	.	4g/	12d\L	.	.
.	.	.	.	12cn\	.	.
.	.	.	.	12B\J	.	.
.	4BB 4EE\	.	4b/	12g\L	.	.
.	.	.	.	12f#\	.	]
.	.	.	.	12e\J	.	.
2F#~/	4ryy	.	4f#/	12d#X\L	.	.
.	.	.	.	12c#X\	.	.
.	.	.	.	12B\J	.	.
.	4BB 4EE\	.	4a/	12c#\L	.	.
.	.	.	.	12d#\	.	.
.	.	.	.	12B\J	.	.
=66	=66	=66	=66	=66	=66	=66
2E~/	4ryy	.	4g/	12e\L	.	.
.	.	.	.	12dn\	.	.
.	.	.	.	12cn\J	.	.
.	4BB 4EE\	.	4e/	12d\L	.	.
.	.	.	.	12c\	.	.
.	.	.	.	12B\J	.	.
2E~/	4ryy	.	4g/	12c\L	.	.
.	.	.	.	12B\	.	.
.	.	.	.	12A#X\J	.	.
.	4BB 4EE\	.	4c/	12B\L	.	.
.	.	.	.	12An\	.	.
.	.	.	.	12G\J	.	.
[>4E~/	4ryy	.	4d/	12A\L	.	.
.	.	.	.	12G\	.	.
.	.	.	.	12F#\J	.	.
*	*	*	*clefF4	*	*	*
!!LO:PB:g=original
=67	=67	=67	=67	=67	=67	=67
4E/]	4BB 4EE\	.	4e/	12c\L	.	.
.	.	.	.	12B\	.	.
.	.	.	.	12A\J	.	.
2D#X/	4ryy	.	4c/	12B\L	.	.
.	.	.	.	12A\	.	.
.	.	.	.	12G\J	.	.
.	4BB 4EE\	.	4e/	12A\L	.	.
.	.	.	.	12G\	.	.
.	.	.	.	12F#\J	.	.
2Dn/	4ryy	.	4A/	12G\L	.	.
.	.	.	.	12F#\	.	.
.	.	.	.	12E\J	.	.
!!LO:TX:a:i:t=poco calando
.	4BB 4EE\	.	4d/	12F#\L	.	.
.	.	.	.	12G\	.	.
.	.	.	.	12G#X\J	.	.
*v	*v	*	*	*	*	*
=68	=68	=68	=68	=68	=68
4C~/	.	4c/	12A\L	.	.
.	.	.	12Gn\	.	.
.	.	.	12F#\J	.	.
4BB 4EE/	.	4A/	12G\L	.	.
.	.	.	12F#\	.	.
.	.	.	12E\J	.	.
4C~/	.	4c/	12F#\L	.	.
*	*	*	*	*below	*
.	.	.	12E\	1	.
.	.	.	12D#X\J	2	.
4BB 4EE/	.	[4F#/	12E\L	.	.
.	.	.	12D#\	.	.
.	.	.	12C#X\J	.	.
4C~/	.	12F#/L]	12D#\L	.	.
.	.	12G/	12E\	.	.
.	.	12A/J	12F#\J	.	.
!!LO:LB:g=original
=69	=69	=69	=69	=69	=69
*	*below	*	*	*above	*
!!LO:TX:a:i:t=a tempo
(8BBL 8EE/	2	4B/	12G\L	3 5	p
.	.	.	12F#\	.	.
8CJ 8AA/	1 3	.	.	.	.
.	.	.	12E\J	.	.
2BB 2EE/)	.	12D#X\L	1ryy	.	.
.	.	12E\	.	1	.
.	.	12F#\J	.	.	.
.	.	12G\L	.	.	.
.	.	12A\	.	1	.
.	.	12B\J	.	.	.
*	*	*clefG2	*	*	*
2r	.	12c#X/L	.	.	<
.	.	12d#X/	.	.	.
.	.	12e/J	.	1	.
.	.	12f#/L	.	.	.
.	.	12g/	.	.	.
.	.	12a/J	.	.	[[
*	*	*v	*v	*	*
=70	=70	=70	=70	=70
(8BL 8E\	.	12bL 12g/	.	.
.	.	12f#/	.	.
8cJ 8A\	.	.	.	.
.	.	12e/J	.	.
2B 2E\)	.	12d#X/L	.	.
.	.	12e/	.	.
.	.	12f#/J	.	.
.	.	12g/L	.	.
.	.	12a/	.	.
.	.	12b/J	.	.
2r	.	12cc#X\L	.	.
.	.	12dd#X\	.	.
.	.	12ee\J	.	.
.	.	12ff#\L	.	.
.	.	12gg\	.	.
.	.	12aa\J	.	.
*clefG2	*	*	*	*
!!LO:LB:g=original
=71	=71	=71	=71	=71
(8bL 8e/	.	12bbL 12gg\	.	.
.	.	12ff#\	.	.
8ccJ 8a/	.	.	.	.
.	.	12ee\J	.	.
2b 2e/)	.	12dd#X\L	.	.
.	.	12ee\	.	.
.	.	12ff#\J	.	.
.	.	12gg\L	.	.
.	.	12aa\	.	.
.	.	12bb\J	.	.
*	*	*8va	*	*
2r	.	12ccc#X\L	.	.
.	.	12ddd#X\	.	.
.	.	12eee\J	.	.
.	.	12fff#\L	.	.
.	.	12ggg\	.	.
.	.	12aaa\J	.	.
=72	=72	=72	=72	=72
4bb 4ee\	.	12bbbL 12ggg\	.	.
.	.	12fff#\	.	.
.	.	12eee\J	.	.
4ccc 4aa\	.	12ddd#X\L	.	.
.	.	12eee\	.	.
.	.	12fff#\J	.	.
4bb 4ee\	.	12bbbL 12ggg\	.	.
.	.	12fff#\	.	.
.	.	12eee\J	.	.
4ccc 4aa\	.	12ddd#\L	.	.
.	.	12eee\	.	.
.	.	12fff#\J	.	.
4bb 4ee\	.	12bbbL 12ggg\	.	.
.	.	12fff#\	.	.
.	.	12eee\J	.	.
!!LO:LB:g=original
=73	=73	=73	=73	=73
4ccc 4aa\	.	12ddd#X\L	.	.
.	.	12eee\	.	.
.	.	12fff#\J	.	>
4bb 4ee\	.	12bbbL 12ggg\	.	.
.	.	12fff#\	.	.
.	.	12eee\J	.	.
4ccc 4aa\	.	12ddd#\L	.	.
.	.	12eee\	.	.
.	.	12fff#\J	.	.
4bb 4ee\	.	12bbbL 12ggg\	.	.
.	.	12fff#\	.	.
.	.	12eee\J	.	.
4ccc 4aa\	.	12ddd#\L	.	]
.	.	12eee\	.	.
.	.	12fff#\J	.	.
=74	=74	=74	=74	=74
4bb 4ee\	.	12bbbL 12ggg/	.	.
.	.	12fff#/	.	.
.	.	12eee/J	.	.
*8va	*	*	*	*
!	!	!LO:TX:b:i:t=m.s.	!	!
12dddn>\L	.	4ryy	.	.
12ccc>\	.	.	.	.
12bb>\J	.	.	.	.
*X8va	*	*	*	*
4ryy	.	12eeeL 12ccc/	3 5	.
.	.	12bb/	1	.
.	.	12aa#X/J	2	.
*8va	*	*	*	*
12aan>\L	.	4ryy	.	.
12gg>\	.	.	.	.
12ff#>\J	.	.	.	.
*X8va	*	*	*	*
4ryy	.	12bbL 12gg/	.	<
.	.	12ff#/	.	.
.	.	12ee/J	.	.
*	*	*X8va	*	*
=75	=75	=75	=75	=75
12dd>\L	.	4ryy	.	.
12cc>\	.	.	.	.
12b>\J	.	.	.	.
4ryy	.	12eeL 12cc/	.	.
.	.	12b/	.	.
.	.	12a#X/J	.	.
12an>\L	.	4ryy	.	[[
12g>\	.	.	.	.
12f#>\J	.	.	.	.
4ryy	.	12bL 12g/	.	.
.	.	12f#/	.	.
.	.	12e/J	.	.
*clefF4	*	*	*	*
12d\L	.	4ryy	.	.
12c\	.	.	.	.
12B\J	.	.	.	.
!!LO:LB:g=original
=76	=76	=76	=76	=76
4ryy	.	12e<L 12c</	.	.
.	.	12B</	.	.
.	.	12A#X</J	.	.
12An\L	.	4ryy	.	.
12G\	.	.	.	.
12F#\J	.	.	.	.
4ryy	.	12B<L 12G</	.	.
.	.	12F#</	.	.
.	.	12E</J	.	.
12D\L	.	4ryy	.	.
12C\	.	.	.	.
12BB\J	.	.	.	.
4ryy	.	12E<L 12C</	.	.
.	.	12BB</	.	.
.	.	12AA#X</J	.	.
=77	=77	=77	=77	=77
*ped	*	*	*	*
!LO:TX:b:i:t=ten.	!	!	!	!
!LO:TX:t=P:problem:klamra z 2	!	!	!	!
8BB 8EE\	.	8ryy	.	.
4.ryy	.	8E</L	1	.
!	!	!LO:TX:t=P:problem:klamra z 2	!	!
.	.	8B< 8G</	2 3	.
.	.	8e/J	.	.
!LO:TX:t=P:problem:klamra z 2	!	!LO:TX:b:i:t=m.s.	!	!
8g>\L	5	4.ryy	.	.
8ee> 8b>\	2 4	.	.	.
!LO:TX:t=P:problem:klamra z 2	!	!	!	!
8gg>\J	.	.	.	.
*	*	*8va	*	*
8ryy	.	8bb/L	1	.
!	!	!LO:TX:t=P:problem:klamra z 2	!	!
4ryy	.	8ggg 8eee/	.	.
.	.	8bbb/J	.	.
=78	=78	=78	=78	=78
!	!	!LO:TX:b:i:t=m.s.	!	!
4%5ryy	.	2.eeee\	2	.
*	*	*X8va	*	*
.	.	2r	.	.
*Xped	*	*	*	*
==	==	==	==	==
*-	*-	*-	*-	*-
!!!system-decoration: {(g1)}
!!!RDF**kern: i = editorial accidental
!!!RDF**kern: > = above
!!!RDF**kern: < = below
!!!RDF**kern: N = linked
!!!RDF**dynam: > = "dim.", fontstyle= "italic"
!!!ENC: Andrzej Gręziak
!!!EED: Katarzyna Serwa
!!!END: 2023-10-23
!!!EEV: 2023-10-27
